X:1
T:Title
%%score { ( 1 3 ) | ( 2 4 ) }
L:1/8
M:6/8
K:D
V:1 treble nm="Grand Piano"
V:3 treble 
V:2 bass 
V:4 bass 
V:1
 z3 z2[Q:1/4=84] [FA] | [FA][=F^G][^FA] [=GB][FA][FA] | [Fd][Ac][GB] [FA]2 [Fd]/[Fd]/ | %3
 ccc [Gc][GB][Gc] | [Fd]3- [Fd]2 [FA] | [FA][=F^G][^FA] [=GB][FA][FA] | %6
 [Fd][Ac][GB] [FA]2 [Fd]/[Fd]/ | ccc [Gc][GB][Gc] |[M:5/8] [Fd]-[Fd]- [Fd]3 |[M:1/8] [FA]/[FA]/ | %10
[M:3/4] [FA][FA] [FA][FA] [DF][FA] |[M:5/8] B-B- B3 |[M:1/8] B/B/ |[M:3/4] B^A B[^GB] [Gc][Gd] | %14
 c6 | [Fd][Fc] [Fd]B cd | [FA][GB] [FA] [DF]2 [Fd]/[Fd]/ | cc c[Gc] [GB][Gc] | %18
[M:5/8] [Fd]-[Fd]- [Fd]3 |] %19
V:2
 z3 z2 [D,D] | [D,D][D,D][D,D] [D,D][D,D][D,D] | [D,A,][D,B,][D,C] [D,D]2 [D,A,]/[D,A,]/ | %3
 [A,E][A,E][A,E] [A,,A,][A,,A,][A,,A,] | [D,A,]3- [D,A,]2 [D,D] | [D,D][D,D][D,D] [D,D][D,D][D,D] | %6
 [D,A,][D,B,][D,C] [D,D]2 [D,A,]/[D,A,]/ | [A,E][A,E][A,E] [A,,A,][A,,A,][A,,A,] | %8
[M:5/8] [D,A,]-[D,A,]- [D,A,]3 |[M:1/8] [D,D]/[D,D]/ |[M:3/4] [D,D][D,D] [D,D][D,D] [D,A,][D,D] | %11
[M:5/8][K:treble] [G,DG]-[G,DG]- [G,DG]3 |[M:1/8] [G,DG]/[G,DG]/ | %13
[M:3/4] [G,DG][G,DF] [G,DG][K:bass][E,E] [E,E][E,E] | A4 z2 | %15
 [D,D][D,D] [D,D][K:treble][G,DG] [G,CG][G,B,G] | [D,D][D,D] [D,D] [D,A,]2 [D,A,]/[D,A,]/ | %17
 [A,E][A,E] [A,E][A,,A,] [A,,A,][A,,A,] |[M:5/8] [D,A,]-[D,A,]- [D,A,]3 |] %19
V:3
 x6 | x6 | x6 | x6 | x6 | x6 | x6 | x6 |[M:5/8] x5 |[M:1/8] x |[M:3/4] x6 |[M:5/8] x5 |[M:1/8] x | %13
[M:3/4] x6 | z2 z G2 B/c/ | x6 | x6 | x6 |[M:5/8] x5 |] %19
V:4
 x6 | x6 | x6 | x6 | x6 | x6 | x6 | x6 |[M:5/8] x5 |[M:1/8] x |[M:3/4] x6 |[M:5/8][K:treble] x5 | %12
[M:1/8] x |[M:3/4] x3[K:bass] x3 | [A,E]4- [A,E][A,EG]/[A,EG]/ | x3[K:treble] x3 | x6 | x6 | %18
[M:5/8] x5 |] %19

